src/assets/icons/letters,fancy,serif-m.svg

<svg width="48" height="48" viewBox="0 0 48 48" fill="none" xmlns="http://www.w3.org/2000/svg">
<path d="M24.3319 29.894L33.1099 7.74H44.2059V9.26C43.3699 9.26 42.6859 9.34867 42.1539 9.526C41.6472 9.678 41.2546 9.96933 40.9759 10.4C40.6972 10.8307 40.5072 11.426 40.4059 12.186C40.3299 12.9207 40.2919 13.858 40.2919 14.998V29.742C40.2919 31.0087 40.3426 32.0093 40.4439 32.744C40.5452 33.4787 40.7479 34.0487 41.0519 34.454C41.3559 34.8593 41.7866 35.1253 42.3439 35.252C42.9266 35.3787 43.6866 35.4547 44.6239 35.48V37H30.3359V35.48C31.2732 35.4547 32.0206 35.3787 32.5779 35.252C33.1606 35.1 33.6039 34.834 33.9079 34.454C34.2372 34.074 34.4526 33.542 34.5539 32.858C34.6552 32.1487 34.7059 31.1987 34.7059 30.008V12.224H34.5159L24.2939 37.38H21.4819L10.9179 12.224H10.7659V29.742C10.7659 31.0087 10.8166 32.0093 10.9179 32.744C11.0192 33.4787 11.2219 34.0487 11.5259 34.454C11.8299 34.8593 12.2606 35.1253 12.8179 35.252C13.4006 35.3787 14.1606 35.4547 15.0979 35.48V37H3.39391V35.48C4.33124 35.4547 5.09124 35.3787 5.67391 35.252C6.25657 35.1 6.69991 34.834 7.00391 34.454C7.33324 34.074 7.54857 33.542 7.64991 32.858C7.75124 32.1487 7.80191 31.1987 7.80191 30.008V14.732C7.80191 13.668 7.75124 12.7813 7.64991 12.072C7.54857 11.3627 7.35857 10.8053 7.07991 10.4C6.80124 9.96933 6.39591 9.678 5.86391 9.526C5.35724 9.34867 4.67324 9.26 3.81191 9.26V7.74H15.3259L24.1799 29.894H24.3319Z" fill="black"/>
</svg>

<svg xmlns="http://www.w3.org/2000/svg" width="48" height="48" fill="none" viewBox="0 0 48 48">
  <path fill="#000" d="M24.332 29.894L33.11 7.74h11.096v1.52c-.836 0-1.52.089-2.052.266-.507.152-.9.443-1.178.874-.279.43-.469 1.026-.57 1.786-.076.735-.114 1.672-.114 2.812v14.744c0 1.267.05 2.267.152 3.002.101.735.304 1.305.608 1.71s.735.671 1.292.798c.583.127 1.343.203 2.28.228V37H30.336v-1.52c.937-.025 1.685-.101 2.242-.228.583-.152 1.026-.418 1.33-.798.33-.38.545-.912.646-1.596.101-.71.152-1.66.152-2.85V12.224h-.19L24.294 37.38h-2.812L10.918 12.224h-.152v17.518c0 1.267.05 2.267.152 3.002.101.735.304 1.305.608 1.71s.735.671 1.292.798c.583.127 1.343.203 2.28.228V37H3.394v-1.52c.937-.025 1.697-.101 2.28-.228.583-.152 1.026-.418 1.33-.798.33-.38.545-.912.646-1.596.101-.71.152-1.66.152-2.85V14.732c0-1.064-.05-1.95-.152-2.66-.101-.71-.291-1.267-.57-1.672-.279-.43-.684-.722-1.216-.874-.507-.177-1.19-.266-2.052-.266V7.74h11.514l8.854 22.154h.152z"/>
</svg>
